X: 4
T:Shepherds' Hey, Wheatley
M:4/4
L:1/8
A:Wheatley
P:A(AB)4A
K:G
P:A
|:A|BdeB d2d2|BdeB A2G2|GBB(3B/c/B/ A2e2|d2D2 G3:|
P:B
|:A|B2e2 d4  |B2e2 A4  |c2 (3BcB    A2e2|d2D2 G3:|
